svgs/solid/head-side-brain.svg

<svg xmlns="http://www.w3.org/2000/svg" viewBox="0 0 512 512"><!-- Font Awesome Pro 6.0.0-alpha2 by @fontawesome - https://fontawesome.com License - https://fontawesome.com/license (Commercial License) --><path d="M160.002 179V176C160.002 177 159.752 177.875 159.752 178.875C159.752 178.875 159.877 178.875 160.002 179ZM509.256 275C488.256 227.875 460.756 123.25 436.131 88.25C397.13 32.875 333.754 0 266.128 0H192.002C86.001 0 0 86 0 192C0 246.5 23.25 298.5 64.001 334.875V512H320.004V448H384.005C419.38 448 448.006 419.375 448.006 384V320H480.006C490.881 320 500.881 314.5 506.756 305.375C512.757 296.375 513.632 284.875 509.256 275ZM336.004 208H285.004C287.004 213.125 288.004 218.5 288.004 224C288.004 250.5 266.503 272 240.003 272C234.503 272 229.128 271 224.003 269V320H160.002V269C154.877 271 149.502 272 144.002 272C117.501 272 96.001 250.5 96.001 224C96.001 223 96.251 222.125 96.251 221.125C74.126 213.5 60.751 191 64.626 167.875C68.626 144.875 88.626 128 112.001 128C112.001 101.5 133.502 80 160.002 80C168.252 80 176.377 82.25 183.502 86.375C192.252 72.5 207.503 64 224.003 64C240.503 64 255.753 72.5 264.503 86.375C276.754 79.25 291.504 78 304.879 83C318.129 88 328.504 98.625 333.004 112H336.004C362.505 112 384.005 133.5 384.005 160S362.505 208 336.004 208Z"/></svg>

<svg xmlns="http://www.w3.org/2000/svg" viewBox="0 0 512 512"><!-- Font Awesome Pro 5.15.1 by @fontawesome - https://fontawesome.com License - https://fontawesome.com/license (Commercial License) --><path d="M160 178.94V176c0 1-.23 1.89-.29 2.85a2.46 2.46 0 0 1 .29.09zM509.21 275c-20.94-47.12-48.44-151.73-73.08-186.75A207.94 207.94 0 0 0 266.09 0H192C86 0 0 86 0 192a191.28 191.28 0 0 0 64 142.82V512h256v-64h64a64 64 0 0 0 64-64v-64h32a32 32 0 0 0 29.21-45zM336 208h-50.94a47.5 47.5 0 0 1 2.94 16 48 48 0 0 1-48 48 47.5 47.5 0 0 1-16-2.94V320h-64v-50.94a47.5 47.5 0 0 1-16 2.94 48 48 0 0 1-48-48c0-1 .23-1.89.29-2.85A47.88 47.88 0 0 1 112 128a48 48 0 0 1 48-48 47.46 47.46 0 0 1 23.53 6.4 47.76 47.76 0 0 1 80.94 0 47.37 47.37 0 0 1 68.59 25.6H336a48 48 0 0 1 0 96z"/></svg>
